dist/img/docs-type/xls.svg

<svg width="24" height="24" viewBox="0 0 24 24" fill="none" xmlns="http://www.w3.org/2000/svg">
<path fill-rule="evenodd" clip-rule="evenodd" d="M4 20.5H12V22H4C2.89543 22 2 21.1046 2 20V4C2 2.89543 2.89543 2 4 2H12.4773C12.9959 2 13.4942 2.20142 13.8671 2.56178L17.3898 5.96589C17.7798 6.34274 18 6.8618 18 7.40411V8H16.5V7.40411C16.5 7.26854 16.4449 7.13877 16.3474 7.04456L12.8247 3.64045C12.7315 3.55036 12.6069 3.5 12.4773 3.5H4C3.72386 3.5 3.5 3.72386 3.5 4V20C3.5 20.2761 3.72386 20.5 4 20.5ZM11.0042 10H9.37614L8.50212 12.0711L7.6281 10H6L7.68807 14L6.00002 18H7.62813L8.50212 15.929L9.37612 18H11.0042L9.31617 14L11.0042 10ZM14.0068 10V16.5049H16.5068V18.0049H12.5068V18V16.5049V10H14.0068ZM17.4968 12.3201C17.4968 11.0429 18.5322 10.0076 19.8094 10.0076H22.0068V11.5076H19.8094C19.3606 11.5076 18.9968 11.8714 18.9968 12.3201C18.9968 12.6832 19.2377 13.0023 19.5869 13.1017L20.8306 13.4557C21.8244 13.7386 22.5099 14.6464 22.5099 15.6796C22.5099 16.9567 21.4746 17.9919 20.1976 17.9919L17.5068 17.9918L17.5068 16.4918L20.1976 16.4919C20.6462 16.4919 21.0099 16.1282 21.0099 15.6796C21.0099 15.3167 20.7691 14.9978 20.42 14.8984L19.1762 14.5444C18.1824 14.2615 17.4968 13.3535 17.4968 12.3201Z" fill="#141414"/>
</svg>

<svg width="24" height="24" viewBox="0 0 24 24" fill="none" xmlns="http://www.w3.org/2000/svg"><path fill-rule="evenodd" clip-rule="evenodd" d="M4 20.5h8V22H4a2 2 0 01-2-2V4a2 2 0 012-2h8.477a2 2 0 011.39.562l3.523 3.404A2 2 0 0118 7.404V8h-1.5v-.596a.5.5 0 00-.153-.36L12.825 3.64a.5.5 0 00-.348-.14H4a.5.5 0 00-.5.5v16a.5.5 0 00.5.5zM11.004 10H9.376l-.874 2.071L7.628 10H6l1.688 4L6 18h1.628l.874-2.071L9.376 18h1.628l-1.688-4 1.688-4zm3.003 0v6.505h2.5v1.5h-4V10h1.5zm3.49 2.32a2.313 2.313 0 012.312-2.312h2.198v1.5h-2.198a.813.813 0 00-.222 1.594l1.244.354a2.312 2.312 0 01-.633 4.536h-2.691v-1.5h2.69a.812.812 0 00.223-1.594l-1.244-.354a2.313 2.313 0 01-1.68-2.224z" fill="#141414"/></svg>
